X: 01033
T: DANNY'S ON THE GREEN
C: Bob McQuillen '73
B: Bob's Note Book 1 #33
%R: reel
Z: 2019 John Chambers <jc:trillian.mit.edu>
M: C
L: 1/8
K: A
(3(efg) \
| a2ed cAce | d2f2 e2 (3(efg) | a2ed cAce | d2c2 B2 (3(efg) |
| a2ed cAce | dcde f3g | abaf efec | c2A2 A2 :|
|: AB \
| c2cB AGFE | AGAB c2AB | cefe dcBA | B2E2 E2AB |
| c2cB Acec | defg a2gf | eagf edcB | c2A2 A2 :|
%%begintext align
%% With love from Dad.
%%endtext

%%sep 1 1 500

%%sep 1 1 500

